src/16/panel/btsync-gui-9.svg

<svg xmlns="http://www.w3.org/2000/svg" width="16" height="16" version="1.1">
 <defs>
  <style id="current-color-scheme" type="text/css">
   .ColorScheme-Text { color:#dfdfdf; } .ColorScheme-Highlight { color:#5294e2; }
  </style>
 </defs>
 <path style="fill:currentColor" class="ColorScheme-Text" d="M 14.76148,9.8117327 C 15.76201,6.0777058 13.545761,2.2390493 9.8117332,1.2385194 6.0777055,0.23798961 2.2390482,2.4542393 1.2385189,6.1882668 0.23798986,9.9222947 2.4542387,13.760952 6.1882678,14.761481 9.9222944,15.762011 13.760951,13.545761 14.76148,9.8117327 Z M 12.829629,9.2940955 C 12.203545,11.630673 10.022038,13.1355 7.69761,12.992233 L 7.4130124,14.054372 5.0328717,11.346066 8.4482874,10.190671 8.236986,10.979258 c 1.2301073,-0.09809 2.323159,-0.94274 2.660791,-2.2028002 0.183457,-0.6895232 0.115149,-1.4218588 -0.192661,-2.0655597 l 1.461546,-1.4625756 c 0.789133,1.1918292 1.03044,2.6644142 0.662967,4.045773 z M 10.967128,4.653935 7.5517123,5.8093296 7.7630134,5.0207413 C 6.5329058,5.1188325 5.4398549,5.9634824 5.1022217,7.2235433 4.9187691,7.9130661 4.9870738,8.6454015 5.294883,9.2891039 L 3.833338,10.751678 C 3.0442046,9.5598485 2.8029276,8.0872712 3.1703708,6.7059051 3.7964541,4.3693269 5.9779618,2.8645009 8.3023878,3.0077669 L 8.5869884,1.9456264 10.967128,4.653935 Z"/>
</svg>

<svg xmlns="http://www.w3.org/2000/svg" width="16" height="16"><defs><style id="current-color-scheme" type="text/css"></style></defs><path d="M14.761 9.812A7 7 0 1 0 1.238 6.189 7 7 0 0 0 14.76 9.812zm-1.931-.518a5.002 5.002 0 0 1-5.132 3.698l-.285 1.062-2.38-2.708 3.415-1.155-.211.788a2.99 2.99 0 0 0 2.66-2.203 3 3 0 0 0-.192-2.065l1.462-1.463a5 5 0 0 1 .663 4.046zm-1.863-4.64L7.552 5.809l.211-.788a2.99 2.99 0 0 0-2.66 2.203 3 3 0 0 0 .192 2.065l-1.462 1.463a5 5 0 0 1-.663-4.046 5.002 5.002 0 0 1 5.132-3.698l.285-1.062 2.38 2.708z" fill="currentColor" color="#dfdfdf"/></svg>
